X:1
T:Mill o' Tifty's Annie
M:3/2
L:1/4
K:G
 D| G A G3 B,/2C/2| D3/2 E/2 D3 G/2G/2| G A B3 E| G A3 z A| B d B3 A|\
 G3/2 F/2 E3G/2-F/2|
M:2/2
 E3/2 D/2B,/2 A,3/2|
M:3/2
B,/2-D/2 E3 z|
